svg/postman.svg

<?xml version="1.0" encoding="UTF-8"?>
<svg xmlns="http://www.w3.org/2000/svg" xmlns:xlink="http://www.w3.org/1999/xlink" width="32" height="32" viewBox="0 0 32 32">
<path fill-rule="nonzero" fill="rgb(100%, 42.352941%, 21.568627%)" fill-opacity="1" d="M 30.878906 17.90625 C 31.925781 9.6875 26.121094 2.171875 17.917969 1.121094 C 9.714844 0.0742188 2.171875 5.875 1.121094 14.078125 C 0.0742188 22.285156 5.875 29.8125 14.078125 30.878906 C 22.296875 31.925781 29.8125 26.121094 30.878906 17.902344 "/>
<path fill-rule="nonzero" fill="rgb(100%, 100%, 100%)" fill-opacity="1" d="M 21.414062 10.628906 L 15.085938 16.960938 L 13.300781 15.175781 C 19.523438 8.953125 20.140625 9.492188 21.414062 10.628906 "/>
<path fill-rule="nonzero" fill="rgb(100%, 42.352941%, 21.568627%)" fill-opacity="1" d="M 15.085938 17.109375 C 15.046875 17.109375 15.007812 17.09375 14.980469 17.066406 L 13.179688 15.28125 C 13.121094 15.222656 13.121094 15.128906 13.179688 15.070312 C 19.507812 8.742188 20.167969 9.339844 21.503906 10.539062 C 21.535156 10.566406 21.550781 10.605469 21.546875 10.644531 C 21.550781 10.683594 21.535156 10.722656 21.503906 10.75 L 15.175781 17.066406 C 15.160156 17.09375 15.117188 17.109375 15.085938 17.109375 M 13.511719 15.175781 L 15.085938 16.75 L 21.1875 10.644531 C 20.078125 9.65625 19.328125 9.355469 13.511719 15.175781 "/>
<path fill-rule="nonzero" fill="rgb(100%, 100%, 100%)" fill-opacity="1" d="M 16.898438 18.773438 L 15.175781 17.050781 L 21.503906 10.71875 C 23.199219 12.429688 20.664062 15.207031 16.898438 18.773438 "/>
<path fill-rule="nonzero" fill="rgb(100%, 42.352941%, 21.568627%)" fill-opacity="1" d="M 16.898438 18.925781 C 16.859375 18.925781 16.820312 18.910156 16.792969 18.878906 L 15.070312 17.15625 C 15.039062 17.125 15.039062 17.09375 15.039062 17.050781 C 15.039062 17.003906 15.054688 16.976562 15.085938 16.945312 L 21.414062 10.617188 C 21.441406 10.585938 21.480469 10.570312 21.519531 10.570312 C 21.558594 10.570312 21.597656 10.585938 21.625 10.617188 C 22.011719 10.972656 22.222656 11.484375 22.207031 12.011719 C 22.179688 13.675781 20.289062 15.789062 17.019531 18.878906 C 16.984375 18.90625 16.941406 18.921875 16.898438 18.925781 M 15.386719 17.050781 C 16.34375 18.023438 16.75 18.414062 16.898438 18.566406 C 19.417969 16.164062 21.863281 13.707031 21.878906 12.011719 C 21.882812 11.617188 21.746094 11.230469 21.488281 10.929688 Z M 15.386719 17.050781 "/>
<path fill-rule="nonzero" fill="rgb(100%, 100%, 100%)" fill-opacity="1" d="M 13.332031 15.21875 L 14.605469 16.496094 C 14.636719 16.523438 14.636719 16.554688 14.605469 16.585938 C 14.589844 16.601562 14.589844 16.601562 14.574219 16.601562 L 11.933594 17.167969 C 11.800781 17.183594 11.675781 17.09375 11.652344 16.960938 C 11.636719 16.890625 11.660156 16.816406 11.710938 16.765625 L 13.242188 15.234375 C 13.269531 15.207031 13.316406 15.191406 13.332031 15.21875 "/>
<path fill-rule="nonzero" fill="rgb(100%, 42.352941%, 21.568627%)" fill-opacity="1" d="M 11.890625 17.320312 C 11.664062 17.320312 11.5 17.140625 11.5 16.914062 C 11.5 16.808594 11.546875 16.703125 11.621094 16.628906 L 13.152344 15.101562 C 13.234375 15.023438 13.367188 15.023438 13.449219 15.101562 L 14.726562 16.375 C 14.816406 16.449219 14.816406 16.585938 14.726562 16.675781 C 14.695312 16.703125 14.660156 16.722656 14.621094 16.734375 L 11.980469 17.304688 C 11.949219 17.304688 11.921875 17.320312 11.890625 17.320312 M 13.285156 15.386719 L 11.816406 16.855469 C 11.777344 16.882812 11.773438 16.9375 11.800781 16.976562 C 11.816406 17.019531 11.859375 17.035156 11.90625 17.019531 L 14.378906 16.480469 Z M 13.285156 15.386719 "/>
<path fill-rule="nonzero" fill="rgb(100%, 100%, 100%)" fill-opacity="1" d="M 24.757812 7.121094 C 24.050781 6.4375 23 6.25 22.097656 6.648438 C 21.195312 7.042969 20.621094 7.945312 20.648438 8.929688 C 20.660156 9.574219 20.929688 10.1875 21.398438 10.628906 C 22.191406 11.394531 23.398438 11.53125 24.339844 10.960938 L 22.628906 9.25 Z M 24.757812 7.121094 "/>
<path fill-rule="nonzero" fill="rgb(100%, 42.352941%, 21.568627%)" fill-opacity="1" d="M 23.078125 11.457031 C 21.917969 11.457031 20.898438 10.679688 20.589844 9.5625 C 20.28125 8.441406 20.757812 7.253906 21.757812 6.660156 C 22.753906 6.066406 24.027344 6.210938 24.863281 7.015625 C 24.894531 7.042969 24.910156 7.082031 24.90625 7.121094 C 24.910156 7.160156 24.894531 7.203125 24.863281 7.226562 L 22.839844 9.25 L 24.429688 10.839844 C 24.488281 10.898438 24.488281 10.992188 24.429688 11.050781 L 24.398438 11.082031 C 24 11.324219 23.542969 11.453125 23.078125 11.457031 M 23.078125 6.613281 C 22.472656 6.609375 21.894531 6.851562 21.46875 7.277344 C 21.042969 7.707031 20.808594 8.289062 20.8125 8.890625 C 20.8125 9.496094 21.050781 10.074219 21.480469 10.5 C 21.910156 10.925781 22.488281 11.160156 23.09375 11.15625 C 23.4375 11.15625 23.785156 11.082031 24.097656 10.914062 L 22.523438 9.355469 C 22.492188 9.328125 22.476562 9.289062 22.480469 9.25 C 22.480469 9.207031 22.492188 9.175781 22.523438 9.144531 L 24.535156 7.136719 C 24.128906 6.792969 23.609375 6.605469 23.078125 6.613281 "/>
<path fill-rule="nonzero" fill="rgb(100%, 100%, 100%)" fill-opacity="1" d="M 24.804688 7.167969 L 24.773438 7.136719 L 22.628906 9.25 L 24.324219 10.945312 C 24.488281 10.839844 24.652344 10.71875 24.789062 10.585938 C 25.253906 10.136719 25.515625 9.519531 25.515625 8.878906 C 25.519531 8.234375 25.265625 7.617188 24.804688 7.164062 "/>
<path fill-rule="nonzero" fill="rgb(100%, 42.352941%, 21.568627%)" fill-opacity="1" d="M 24.339844 11.109375 C 24.300781 11.113281 24.257812 11.097656 24.234375 11.066406 L 22.523438 9.355469 C 22.492188 9.332031 22.476562 9.289062 22.480469 9.25 C 22.480469 9.207031 22.492188 9.175781 22.523438 9.144531 L 24.652344 7.015625 C 24.710938 6.957031 24.804688 6.957031 24.863281 7.015625 L 24.90625 7.046875 C 25.464844 7.605469 25.738281 8.394531 25.644531 9.179688 C 25.554688 9.964844 25.105469 10.667969 24.429688 11.082031 C 24.382812 11.097656 24.351562 11.109375 24.339844 11.109375 M 22.839844 9.25 L 24.351562 10.765625 C 24.472656 10.6875 24.582031 10.597656 24.683594 10.496094 C 25.539062 9.640625 25.582031 8.246094 24.757812 7.347656 Z M 22.839844 9.25 "/>
<path fill-rule="nonzero" fill="rgb(100%, 100%, 100%)" fill-opacity="1" d="M 21.667969 10.902344 C 21.496094 10.726562 21.261719 10.628906 21.015625 10.628906 C 20.769531 10.628906 20.535156 10.726562 20.363281 10.902344 L 14.710938 16.554688 L 15.65625 17.5 L 21.636719 12.25 C 22.027344 11.921875 22.058594 11.335938 21.730469 10.945312 C 21.699219 10.929688 21.683594 10.914062 21.667969 10.902344 "/>
<path fill-rule="nonzero" fill="rgb(100%, 42.352941%, 21.568627%)" fill-opacity="1" d="M 15.640625 17.648438 C 15.601562 17.648438 15.5625 17.632812 15.535156 17.605469 L 14.589844 16.660156 C 14.5625 16.632812 14.546875 16.59375 14.542969 16.554688 C 14.542969 16.515625 14.5625 16.476562 14.589844 16.449219 L 20.242188 10.796875 C 20.441406 10.59375 20.714844 10.480469 21 10.480469 C 21.285156 10.480469 21.558594 10.59375 21.757812 10.796875 C 21.960938 10.996094 22.074219 11.269531 22.074219 11.554688 C 22.074219 11.835938 21.960938 12.109375 21.757812 12.3125 L 21.714844 12.355469 L 15.730469 17.605469 C 15.714844 17.632812 15.683594 17.648438 15.640625 17.648438 M 14.921875 16.554688 L 15.65625 17.289062 L 21.535156 12.128906 C 21.863281 11.859375 21.894531 11.367188 21.625 11.035156 C 21.355469 10.707031 20.859375 10.675781 20.53125 10.945312 C 20.511719 10.964844 20.492188 10.980469 20.46875 10.992188 Z M 14.921875 16.554688 "/>
<path fill-rule="nonzero" fill="rgb(100%, 100%, 100%)" fill-opacity="1" d="M 10.375 22.988281 C 10.316406 23.019531 10.285156 23.078125 10.300781 23.136719 L 10.554688 24.21875 C 10.582031 24.292969 10.578125 24.378906 10.539062 24.449219 C 10.503906 24.519531 10.4375 24.574219 10.359375 24.59375 C 10.242188 24.636719 10.109375 24.597656 10.03125 24.503906 L 8.382812 22.867188 L 13.765625 17.484375 L 15.625 17.515625 L 16.886719 18.773438 C 16.585938 19.03125 14.769531 20.785156 10.375 22.988281 "/>
<path fill-rule="nonzero" fill="rgb(100%, 42.352941%, 21.568627%)" fill-opacity="1" d="M 10.257812 24.742188 C 10.136719 24.746094 10.023438 24.695312 9.941406 24.609375 L 8.308594 22.972656 C 8.28125 22.945312 8.265625 22.90625 8.261719 22.867188 C 8.261719 22.828125 8.277344 22.789062 8.308594 22.765625 L 13.691406 17.378906 C 13.71875 17.351562 13.757812 17.335938 13.796875 17.335938 L 15.660156 17.363281 C 15.699219 17.363281 15.738281 17.378906 15.761719 17.410156 L 17.019531 18.667969 C 17.050781 18.703125 17.066406 18.746094 17.066406 18.789062 C 17.066406 18.835938 17.050781 18.863281 17.003906 18.894531 L 16.898438 18.984375 C 15.3125 20.378906 13.152344 21.773438 10.464844 23.109375 L 10.722656 24.171875 C 10.753906 24.3125 10.722656 24.460938 10.628906 24.570312 C 10.539062 24.679688 10.402344 24.746094 10.257812 24.742188 M 8.605469 22.867188 L 10.152344 24.398438 C 10.195312 24.472656 10.285156 24.503906 10.363281 24.457031 C 10.398438 24.4375 10.425781 24.402344 10.4375 24.363281 C 10.453125 24.324219 10.449219 24.28125 10.421875 24.246094 L 10.167969 23.167969 C 10.136719 23.042969 10.199219 22.910156 10.316406 22.855469 C 12.972656 21.519531 15.117188 20.140625 16.691406 18.773438 L 15.582031 17.664062 L 13.855469 17.632812 Z M 8.605469 22.867188 "/>
<path fill-rule="nonzero" fill="rgb(100%, 100%, 100%)" fill-opacity="1" d="M 7.105469 24.15625 L 8.394531 22.867188 L 10.316406 24.789062 L 7.257812 24.578125 C 7.191406 24.574219 7.132812 24.542969 7.09375 24.488281 C 7.054688 24.4375 7.039062 24.371094 7.046875 24.308594 C 7.046875 24.246094 7.0625 24.1875 7.105469 24.15625 "/>
<path fill-rule="nonzero" fill="rgb(100%, 42.352941%, 21.568627%)" fill-opacity="1" d="M 10.316406 24.921875 L 7.242188 24.714844 C 7.015625 24.699219 6.867188 24.503906 6.882812 24.277344 C 6.898438 24.1875 6.925781 24.097656 7 24.039062 L 8.292969 22.75 C 8.316406 22.71875 8.355469 22.703125 8.394531 22.703125 C 8.4375 22.703125 8.472656 22.71875 8.5 22.75 L 10.421875 24.667969 C 10.464844 24.714844 10.480469 24.773438 10.449219 24.832031 C 10.429688 24.886719 10.375 24.925781 10.316406 24.921875 M 8.394531 23.078125 L 7.210938 24.261719 C 7.167969 24.292969 7.167969 24.367188 7.210938 24.398438 C 7.226562 24.414062 7.242188 24.429688 7.269531 24.429688 L 9.925781 24.609375 Z M 13.242188 18.175781 C 13.203125 18.175781 13.164062 18.160156 13.132812 18.132812 C 13.105469 18.101562 13.089844 18.0625 13.089844 18.023438 C 13.089844 17.984375 13.105469 17.945312 13.136719 17.917969 L 14.589844 16.464844 C 14.617188 16.4375 14.65625 16.421875 14.695312 16.417969 C 14.734375 16.417969 14.773438 16.4375 14.800781 16.464844 L 15.746094 17.410156 C 15.789062 17.453125 15.804688 17.5 15.789062 17.558594 C 15.769531 17.613281 15.726562 17.652344 15.671875 17.664062 L 13.269531 18.175781 Z M 14.695312 16.78125 L 13.707031 17.769531 L 15.324219 17.425781 Z M 14.695312 16.78125 "/>
<path fill-rule="nonzero" fill="rgb(100%, 100%, 100%)" fill-opacity="1" d="M 15.625 17.515625 L 13.976562 17.875 C 13.878906 17.898438 13.777344 17.855469 13.726562 17.765625 C 13.679688 17.675781 13.695312 17.570312 13.765625 17.5 L 14.679688 16.585938 Z M 15.625 17.515625 "/>
<path fill-rule="nonzero" fill="rgb(100%, 42.352941%, 21.568627%)" fill-opacity="1" d="M 13.945312 18.023438 C 13.84375 18.027344 13.746094 17.988281 13.679688 17.914062 C 13.609375 17.84375 13.570312 17.746094 13.570312 17.648438 C 13.570312 17.546875 13.609375 17.453125 13.675781 17.378906 L 14.589844 16.464844 C 14.617188 16.4375 14.65625 16.421875 14.695312 16.417969 C 14.734375 16.417969 14.773438 16.4375 14.800781 16.464844 L 15.746094 17.410156 C 15.789062 17.453125 15.804688 17.5 15.789062 17.558594 C 15.769531 17.613281 15.726562 17.652344 15.671875 17.664062 L 14.019531 18.023438 Z M 14.695312 16.78125 L 13.886719 17.589844 C 13.855469 17.621094 13.855469 17.648438 13.871094 17.679688 C 13.886719 17.710938 13.914062 17.726562 13.960938 17.726562 L 15.339844 17.425781 Z M 24.816406 8.605469 C 24.789062 8.515625 24.683594 8.472656 24.59375 8.5 C 24.503906 8.535156 24.457031 8.636719 24.488281 8.726562 C 24.488281 8.742188 24.503906 8.757812 24.503906 8.769531 C 24.589844 8.957031 24.566406 9.175781 24.441406 9.339844 C 24.386719 9.414062 24.394531 9.515625 24.457031 9.582031 C 24.535156 9.640625 24.636719 9.625 24.699219 9.550781 C 24.921875 9.265625 24.96875 8.90625 24.816406 8.605469 "/>
</svg>

<svg role="img" viewBox="0 0 32 32" height="32" width="32" xmlns="http://www.w3.org/2000/svg"><path d="M30.879 17.906C31.926 9.688 26.12 2.172 17.918 1.121 9.715.074 2.172 5.875 1.121 14.078c-1.047 8.207 4.754 15.735 12.957 16.8 8.219 1.048 15.735-4.757 16.8-12.976" fill="rgb(100%, 42.352941%, 21.568627%)"/><path d="m21.414 10.629-6.328 6.332-1.785-1.785c6.222-6.223 6.84-5.684 8.113-4.547" fill="rgb(100%, 100%, 100%)"/><path d="M15.086 17.11a.15.15 0 0 1-.106-.044l-1.8-1.785a.149.149 0 0 1 0-.21c6.328-6.329 6.988-5.731 8.324-4.532a.124.124 0 0 1 .043.106.124.124 0 0 1-.043.105l-6.328 6.316c-.016.028-.059.043-.09.043m-1.574-1.933 1.574 1.574 6.102-6.105c-1.11-.989-1.86-1.29-7.676 4.53" fill="rgb(100%, 42.352941%, 21.568627%)"/><path d="m16.898 18.773-1.722-1.722 6.328-6.332c1.695 1.71-.84 4.488-4.606 8.054" fill="rgb(100%, 100%, 100%)"/><path d="M16.898 18.926a.14.14 0 0 1-.105-.047l-1.723-1.723c-.03-.031-.03-.062-.03-.105 0-.047.015-.074.046-.106l6.328-6.328a.14.14 0 0 1 .106-.047.14.14 0 0 1 .105.047c.387.356.598.867.582 1.395-.027 1.664-1.918 3.777-5.187 6.867a.232.232 0 0 1-.122.047m-1.511-1.875c.957.972 1.363 1.363 1.511 1.515 2.52-2.402 4.965-4.859 4.98-6.554a1.639 1.639 0 0 0-.39-1.082Zm0 0" fill="rgb(100%, 42.352941%, 21.568627%)"/><path d="m13.332 15.219 1.273 1.277c.032.027.032.059 0 .09-.015.016-.015.016-.03.016l-2.641.566a.255.255 0 0 1-.282-.207.213.213 0 0 1 .059-.195l1.531-1.532c.028-.027.074-.043.09-.015" fill="rgb(100%, 100%, 100%)"/><path d="M11.89 17.32c-.226 0-.39-.18-.39-.406 0-.105.047-.21.121-.285l1.531-1.527a.217.217 0 0 1 .297 0l1.278 1.273c.09.074.09.21 0 .3a.281.281 0 0 1-.106.06l-2.64.57c-.032 0-.06.015-.09.015m1.394-1.933-1.469 1.468c-.039.028-.043.082-.015.122.015.043.058.058.105.043l2.473-.54Zm0 0" fill="rgb(100%, 42.352941%, 21.568627%)"/><path d="M24.758 7.121a2.42 2.42 0 0 0-2.66-.473 2.418 2.418 0 0 0-1.45 2.282c.012.644.282 1.258.75 1.699.793.766 2 .902 2.942.332L22.629 9.25Zm0 0" fill="rgb(100%, 100%, 100%)"/><path d="M23.078 11.457c-1.16 0-2.18-.777-2.488-1.895a2.577 2.577 0 0 1 1.168-2.902 2.578 2.578 0 0 1 3.105.356.124.124 0 0 1 .043.105.12.12 0 0 1-.043.106L22.84 9.25l1.59 1.59a.149.149 0 0 1 0 .21l-.032.032a2.585 2.585 0 0 1-1.32.375m0-4.844a2.257 2.257 0 0 0-2.265 2.278 2.26 2.26 0 0 0 2.28 2.265c.345 0 .692-.074 1.005-.242l-1.575-1.559a.124.124 0 0 1-.043-.105c0-.043.012-.074.043-.105l2.012-2.008a2.211 2.211 0 0 0-1.457-.524" fill="rgb(100%, 42.352941%, 21.568627%)"/><path d="m24.805 7.168-.032-.031L22.63 9.25l1.695 1.695c.164-.105.328-.226.465-.36a2.395 2.395 0 0 0 .016-3.422" fill="rgb(100%, 100%, 100%)"/><path d="M24.34 11.11a.12.12 0 0 1-.106-.044l-1.71-1.71a.12.12 0 0 1-.044-.106c0-.043.012-.074.043-.105l2.13-2.13a.149.149 0 0 1 .21 0l.043.032a2.588 2.588 0 0 1-.476 4.035c-.047.016-.078.027-.09.027m-1.5-1.859 1.512 1.516c.12-.079.23-.168.332-.27.855-.855.898-2.25.074-3.148Zm0 0" fill="rgb(100%, 42.352941%, 21.568627%)"/><path d="M21.668 10.902a.91.91 0 0 0-.652-.273.91.91 0 0 0-.653.273l-5.652 5.653.945.945 5.98-5.25c.391-.328.423-.914.094-1.305-.03-.015-.046-.03-.062-.043" fill="rgb(100%, 100%, 100%)"/><path d="M15.64 17.648a.15.15 0 0 1-.105-.043l-.945-.945a.185.185 0 0 1-.047-.105c0-.04.02-.078.047-.106l5.652-5.652a1.064 1.064 0 0 1 1.516 0c.203.2.316.473.316.758 0 .28-.113.554-.316.758l-.043.042-5.985 5.25c-.015.028-.046.043-.09.043m-.718-1.093.734.734 5.88-5.16c.327-.27.359-.762.089-1.094-.27-.328-.766-.36-1.094-.09a.238.238 0 0 1-.062.047Zm0 0" fill="rgb(100%, 42.352941%, 21.568627%)"/><path d="M10.375 22.988c-.059.032-.09.09-.074.149l.254 1.082a.28.28 0 0 1-.016.23.279.279 0 0 1-.18.145.298.298 0 0 1-.328-.09l-1.648-1.637 5.383-5.383 1.859.032 1.262 1.257c-.301.258-2.117 2.012-6.512 4.215" fill="rgb(100%, 100%, 100%)"/><path d="M10.258 24.742a.419.419 0 0 1-.317-.133L8.31 22.973a.175.175 0 0 1-.047-.106c0-.039.015-.078.047-.101l5.382-5.387a.15.15 0 0 1 .106-.043l1.863.027c.04 0 .078.016.102.047l1.258 1.258a.182.182 0 0 1 .046.121c0 .047-.015.074-.062.106l-.106.09c-1.585 1.394-3.746 2.788-6.433 4.124l.258 1.063a.467.467 0 0 1-.465.57m-1.653-1.875 1.547 1.531c.043.075.133.106.211.059a.162.162 0 0 0 .075-.094.126.126 0 0 0-.016-.117l-.254-1.078a.274.274 0 0 1 .148-.313c2.657-1.335 4.801-2.714 6.375-4.082l-1.109-1.109-1.727-.031Zm0 0" fill="rgb(100%, 42.352941%, 21.568627%)"/><path d="m7.105 24.156 1.29-1.289 1.921 1.922-3.058-.21a.225.225 0 0 1-.164-.09.247.247 0 0 1-.047-.18c0-.063.016-.122.058-.153" fill="rgb(100%, 100%, 100%)"/><path d="m10.316 24.922-3.074-.207c-.226-.016-.375-.211-.36-.438.016-.09.044-.18.118-.238l1.293-1.289a.126.126 0 0 1 .102-.047c.043 0 .078.016.105.047l1.922 1.918c.043.047.058.105.027.164a.135.135 0 0 1-.133.09m-1.921-1.844L7.21 24.262c-.043.031-.043.105 0 .136.016.016.031.032.059.032l2.656.18Zm4.847-4.902a.168.168 0 0 1-.11-.043.168.168 0 0 1-.042-.11.14.14 0 0 1 .047-.105l1.453-1.453a.185.185 0 0 1 .105-.047c.04 0 .078.02.106.047l.945.945c.043.043.059.09.043.149a.16.16 0 0 1-.117.105l-2.402.512Zm1.453-1.395-.988.989 1.617-.344Zm0 0" fill="rgb(100%, 42.352941%, 21.568627%)"/><path d="m15.625 17.516-1.648.359a.225.225 0 0 1-.25-.11.225.225 0 0 1 .039-.265l.914-.914Zm0 0" fill="rgb(100%, 100%, 100%)"/><path d="M13.945 18.023a.337.337 0 0 1-.265-.109.379.379 0 0 1-.11-.266c0-.101.04-.195.106-.27l.914-.913a.185.185 0 0 1 .105-.047c.04 0 .078.02.106.047l.945.945c.043.043.059.09.043.149a.16.16 0 0 1-.117.105l-1.652.36Zm.75-1.242-.808.809c-.032.031-.032.058-.016.09.016.03.043.047.09.047l1.379-.301Zm10.121-8.176c-.027-.09-.132-.132-.222-.105a.182.182 0 0 0-.106.227c0 .015.016.03.016.043a.557.557 0 0 1-.063.57.19.19 0 0 0 .016.242c.078.059.18.043.242-.031.223-.285.27-.645.117-.946" fill="rgb(100%, 42.352941%, 21.568627%)"/></svg>
